dist/files/industries_metal_logo.svg

<svg width="142" height="142" viewBox="0 0 142 142" fill="none" xmlns="http://www.w3.org/2000/svg">
<g filter="url(#filter0_d_6017_3344)">
<circle cx="67" cy="68" r="59" fill="#152968"/>
</g>
<path d="M75.6568 96.8477H56.625C55.877 96.8477 55.2656 97.4591 55.2656 98.2071C55.2656 98.9551 55.877 99.5665 56.625 99.5665H75.6568C76.4048 99.5665 77.0162 98.9551 77.0162 98.2071C77.0162 97.4591 76.4048 96.8477 75.6568 96.8477Z" fill="white"/>
<mask id="mask0_6017_3344" style="mask-type:luminance" maskUnits="userSpaceOnUse" x="57" y="102" width="18" height="4">
<path d="M57.6445 102.207H74.6121V105.011H57.6445V102.207Z" fill="white"/>
</mask>
<g mask="url(#mask0_6017_3344)">
<path d="M72.9398 102.293H59.3457C58.5977 102.293 57.9863 102.904 57.9863 103.652C57.9863 104.4 58.5977 105.012 59.3457 105.012H72.9398C73.6878 105.012 74.2992 104.4 74.2992 103.652C74.2992 102.904 73.6878 102.293 72.9398 102.293Z" fill="white"/>
</g>
<path d="M65.1895 73.7378H67.0927C68.8592 73.7378 70.3553 72.3783 70.3553 70.6794V69.32C71.3062 69.0481 72.1894 68.6396 73.0741 68.1649L74.025 69.1158C75.1801 70.2709 77.2199 70.2033 78.4427 68.9805L79.8021 67.6211C81.0939 66.3293 81.1615 64.3585 79.9387 63.202L78.9865 62.2511C79.4626 61.3678 79.8021 60.4832 80.143 59.5323H81.5024C83.2013 59.5323 84.5607 58.1052 84.5607 56.2697V54.3665C84.5607 52.5986 83.2013 51.1039 81.5024 51.1039H80.143C79.8711 50.1517 79.4626 49.2684 78.9865 48.3851L79.9387 47.4328C81.0939 46.2777 81.0263 44.2392 79.8021 43.0151L78.4427 41.6557C77.1523 40.3639 75.1801 40.2963 74.025 41.5204L73.0741 42.4713C72.1894 41.9952 71.3062 41.6557 70.3553 41.3162V39.9568C70.3553 38.2578 68.9269 36.8984 67.0927 36.8984H65.1895C63.4216 36.8984 61.9269 38.2578 61.9269 39.9568V41.3162C60.9747 41.5881 60.0914 41.9952 59.2081 42.4713L58.2558 41.5204C57.1007 40.3639 55.0609 40.4329 53.8381 41.6557L52.4787 43.0151C51.8673 43.6265 51.4588 44.5111 51.4588 45.3944C51.4588 46.2101 51.7307 46.9581 52.2744 47.5018L53.2267 48.4527C52.7506 49.336 52.4111 50.2206 52.0702 51.1716H50.7108C49.1485 51.1716 47.7891 52.6676 47.7891 54.4341V56.3373C47.7891 58.1052 49.1485 59.5999 50.8474 59.5999H52.2068C52.4787 60.5522 52.8858 61.4354 53.362 62.3187L52.4111 63.271C51.2545 64.4261 51.3235 66.4646 52.5463 67.6887L53.9057 69.0481C55.1975 70.3399 57.1683 70.4075 58.3235 69.1834L59.2757 68.2325C60.159 68.7086 61.0423 69.0481 61.9945 69.3876V70.7471C61.9269 72.3783 63.4216 73.7378 65.1895 73.7378ZM59.7519 65.377L58.7996 64.7657L56.3527 67.2126C56.285 67.2802 55.9455 67.2802 55.7413 67.0773L54.3819 65.7179C54.1776 65.5137 54.11 65.2418 54.2452 65.1052L56.6922 62.6582L56.0808 61.7073C55.3328 60.4832 54.789 59.1927 54.5171 57.8333L54.3142 56.7458H50.7798C50.6431 56.7458 50.4389 56.5416 50.4389 56.202V54.2989C50.4389 53.958 50.6431 53.7551 50.7798 53.7551H54.3142L54.5171 52.6676C54.789 51.3082 55.3328 50.0164 56.0808 48.7923L56.6922 47.8413L54.2452 45.3944C54.1776 45.3268 54.1776 45.2578 54.1776 45.2578C54.1776 45.1225 54.2452 44.9183 54.3819 44.8506L55.7413 43.4912C55.9455 43.287 56.285 43.2194 56.3527 43.3546L58.7996 45.8016L59.7519 45.1902C60.907 44.4421 62.1988 43.8984 63.6258 43.6265L64.7134 43.4236V39.8891C64.7134 39.7525 64.9176 39.5483 65.2571 39.5483H67.1603C67.4998 39.5483 67.7041 39.7525 67.7041 39.8891V43.4236L68.7916 43.6265C70.151 43.8984 71.4428 44.4421 72.6656 45.1902L73.6178 45.8016L76.0648 43.3546C76.1324 43.287 76.4043 43.287 76.6762 43.4912L78.0356 44.8506C78.2398 45.0549 78.3075 45.3268 78.1708 45.462L75.7239 47.909L76.3367 48.8612C77.0833 50.0164 77.6271 51.3758 77.899 52.7352L78.1032 53.8227H81.57C81.7053 53.8227 81.9096 54.027 81.9096 54.3665V56.2697C81.9096 56.6092 81.7053 56.8134 81.57 56.8134H78.1032L77.6961 57.901C77.4242 59.2604 76.8804 60.5522 76.1324 61.775L75.521 62.7272L77.9679 65.1742C78.0356 65.2418 78.0356 65.5137 77.8313 65.7855L76.4719 67.145C76.2677 67.3492 75.9958 67.4168 75.8605 67.2802L73.4136 64.8333L72.4613 65.446C71.3062 66.1927 70.0144 66.7365 68.5873 67.0083L67.4998 67.2126V70.7471C67.4998 70.8837 67.2956 71.0866 66.9561 71.0866H65.0529C64.7134 71.0866 64.5091 70.8837 64.5091 70.7471V67.2126L63.6258 66.9407C62.1988 66.6688 60.907 66.1251 59.7519 65.377Z" fill="white"/>
<path d="M73.277 55.3879C73.277 51.4449 70.0834 48.25 66.1405 48.25C62.1989 48.25 59.0039 51.4449 59.0039 55.3879C59.0039 59.3295 62.1989 62.5245 66.1405 62.5245C70.0834 62.5245 73.277 59.3295 73.277 55.3879ZM61.7227 55.3879C61.7227 52.941 63.6935 50.9688 66.1405 50.9688C68.5874 50.9688 70.5582 52.941 70.5582 55.3879C70.5582 57.8348 68.5874 59.8057 66.1405 59.8057C63.6935 59.8057 61.7227 57.8348 61.7227 55.3879Z" fill="white"/>
<mask id="mask1_6017_3344" style="mask-type:luminance" maskUnits="userSpaceOnUse" x="65" y="18" width="5" height="7">
<path d="M65.9512 18H69.0677V24.9783H65.9512V18Z" fill="white"/>
</mask>
<g mask="url(#mask1_6017_3344)">
<path d="M67.502 24.797C68.25 24.797 68.8614 24.1856 68.8614 23.4376V19.3594C68.8614 18.6114 68.25 18 67.502 18C66.754 18 66.1426 18.6114 66.1426 19.3594V23.4376C66.1426 24.1856 66.754 24.797 67.502 24.797Z" fill="white"/>
</g>
<path d="M51.6654 26.8425C51.8696 27.3863 52.4134 27.6582 52.8882 27.6582C53.0924 27.6582 53.229 27.6582 53.4319 27.5216C54.1123 27.2497 54.4518 26.434 54.1799 25.755L52.6163 22.0839C52.3444 21.4049 51.5287 21.064 50.8497 21.3359C50.1693 21.6078 49.8298 22.4234 50.1017 23.1038L51.6654 26.8425Z" fill="white"/>
<path d="M39.6324 35.5414C39.9043 35.8133 40.2438 35.9486 40.5833 35.9486C40.9228 35.9486 41.2637 35.8133 41.5356 35.5414C42.0793 34.9977 42.0793 34.182 41.5356 33.6383L38.6801 30.7828C38.1364 30.2391 37.3207 30.2391 36.777 30.7828C36.2332 31.3266 36.2332 32.1422 36.777 32.686L39.6324 35.5414Z" fill="white"/>
<path d="M32.8386 45.6693L29.0999 44.1056C28.4195 43.8337 27.6039 44.1732 27.332 44.8536C27.0601 45.5327 27.401 46.3483 28.08 46.6202L31.8187 48.1838C32.023 48.2515 32.1582 48.3205 32.3625 48.3205C32.9063 48.3205 33.3824 47.9796 33.5853 47.5048C33.8572 46.7568 33.5177 45.9412 32.8386 45.6693Z" fill="white"/>
<mask id="mask2_6017_3344" style="mask-type:luminance" maskUnits="userSpaceOnUse" x="24" y="59" width="7" height="5">
<path d="M24 59.957H30.9783V63.0735H24V59.957Z" fill="white"/>
</mask>
<g mask="url(#mask2_6017_3344)">
<path d="M30.797 61.5C30.797 60.752 30.1856 60.1406 29.4376 60.1406H25.3594C24.6114 60.1406 24 60.752 24 61.5C24 62.248 24.6114 62.8594 25.3594 62.8594H29.4376C30.1856 62.8594 30.797 62.248 30.797 61.5Z" fill="white"/>
</g>
<path d="M31.8187 74.8268L28.08 76.3905C27.401 76.6624 27.0601 77.478 27.332 78.157C27.5363 78.7008 28.08 78.9727 28.5561 78.9727C28.7604 78.9727 28.8957 78.9727 29.0999 78.8374L32.8386 77.2738C33.5177 77.0019 33.8572 76.1862 33.5853 75.5072C33.3134 74.8268 32.4978 74.5549 31.8187 74.8268Z" fill="white"/>
<path d="M39.6324 87.4703L36.777 90.3244C36.2332 90.8682 36.2332 91.6838 36.777 92.2276C37.0488 92.4995 37.3884 92.6361 37.7292 92.6361C38.0687 92.6361 38.4083 92.4995 38.6801 92.2276L41.5356 89.3735C42.0793 88.8297 42.0793 88.0141 41.5356 87.4703C40.9918 86.9266 40.1762 86.9266 39.6324 87.4703Z" fill="white"/>
<path d="M95.3676 87.4703C94.8239 86.9266 94.0082 86.9266 93.4645 87.4703C92.9207 88.0141 92.9207 88.8297 93.4645 89.3735L96.3185 92.2276C96.5904 92.4995 96.9299 92.6361 97.2708 92.6361C97.6103 92.6361 97.9498 92.4995 98.2217 92.2276C98.7655 91.6838 98.7655 90.8682 98.2217 90.3244L95.3676 87.4703Z" fill="white"/>
<path d="M106.923 76.3919L103.185 74.8283C102.506 74.5564 101.69 74.8959 101.418 75.5763C101.146 76.2553 101.486 77.071 102.166 77.3428L105.903 78.9065C106.108 78.9741 106.244 79.0431 106.447 79.0431C106.991 79.0431 107.467 78.7022 107.671 78.2275C108.011 77.4795 107.671 76.6638 106.923 76.3919Z" fill="white"/>
<mask id="mask3_6017_3344" style="mask-type:luminance" maskUnits="userSpaceOnUse" x="104" y="59" width="7" height="5">
<path d="M104.039 59.957H110.998V63.0735H104.039V59.957Z" fill="white"/>
</mask>
<g mask="url(#mask3_6017_3344)">
<path d="M109.641 60.1406H105.563C104.815 60.1406 104.203 60.752 104.203 61.5C104.203 62.248 104.815 62.8594 105.563 62.8594H109.641C110.389 62.8594 111 62.248 111 61.5C111 60.752 110.389 60.1406 109.641 60.1406Z" fill="white"/>
</g>
<path d="M102.641 48.3205C102.845 48.3205 102.982 48.3205 103.185 48.1838L106.923 46.6202C107.604 46.3483 107.943 45.5327 107.671 44.8536C107.4 44.1732 106.584 43.8337 105.903 44.1056L102.166 45.6693C101.486 45.9412 101.146 46.7568 101.418 47.4358C101.622 47.9796 102.166 48.3205 102.641 48.3205Z" fill="white"/>
<path d="M96.3185 30.7149L93.4645 33.569C92.9207 34.1128 92.9207 34.9284 93.4645 35.4722C93.7363 35.744 94.0759 35.8807 94.4154 35.8807C94.7549 35.8807 95.0958 35.744 95.3676 35.4722L98.2217 32.6181C98.7655 32.0743 98.7655 31.2587 98.2217 30.7149C97.678 30.1711 96.8623 30.2388 96.3185 30.7149Z" fill="white"/>
<path d="M81.5737 27.5868C81.778 27.6558 81.9132 27.7234 82.1175 27.7234C82.6612 27.7234 83.1374 27.3839 83.3403 26.9078L84.9039 23.1691C85.1758 22.49 84.8363 21.6744 84.1559 21.4025C83.4769 21.1306 82.6612 21.4701 82.3894 22.1492L80.8257 25.8879C80.5538 26.4993 80.8257 27.3149 81.5737 27.5868Z" fill="white"/>
<path d="M92.8534 71.2902C92.242 70.3393 92.3786 69.7266 92.4462 69.5237L93.738 67.96C94.2128 67.4163 94.1452 66.6006 93.6014 66.0569C93.3972 65.9202 93.2619 65.7174 93.1943 65.6484C93.738 65.1046 94.0775 64.5608 94.1452 63.9494C94.2128 63.338 94.0099 62.8619 93.8057 62.59L92.99 61.0264C92.9224 60.8235 92.99 60.6869 92.99 60.6192C93.0576 60.5516 93.2619 60.4826 93.3972 60.4826C93.5338 60.4826 93.6014 60.4826 93.738 60.415C95.8441 59.8712 97.0006 58.9879 97.4077 57.7638C97.6796 56.7452 97.2725 55.8606 96.864 55.3169L90.7473 46.549C90.2712 45.87 90.0669 44.9853 89.8627 44.1021V43.9668C89.7951 43.6259 89.6598 43.2188 89.5908 42.8793C86.1253 30.7799 73.1426 26.1579 62.1307 27.7892C48.0619 29.9642 37.5938 42.0636 37.5938 56.0649C37.5938 62.9985 40.2449 70.1351 44.9346 75.5727C51.1878 82.8459 51.5963 84.952 52.6149 90.5939L52.8191 91.6138C53.091 93.1774 54.1785 94.196 55.4703 94.196H67.5007C68.2488 94.196 68.8602 93.5846 68.8602 92.8365V77.8154C68.8602 77.0674 68.2488 76.456 67.5007 76.456C66.7527 76.456 66.1413 77.0674 66.1413 77.8154V91.4095H55.6056C55.5379 91.3419 55.5379 91.2053 55.4703 91.07L55.2661 90.0501C54.2462 84.2729 53.7714 81.6218 46.9743 73.7372C42.7595 68.8433 40.3126 62.3858 40.3126 56.0649C40.3126 43.423 49.8284 32.4788 62.4026 30.5756C72.1904 29.0809 83.746 33.1592 86.8044 43.6949C86.872 44.0344 87.0086 44.3739 87.0762 44.6458V44.7824C87.3481 45.87 87.62 47.0928 88.368 48.1803L94.5537 56.9481C94.5537 57.0171 94.6213 57.0171 94.6213 57.0848C94.4847 57.22 94.0775 57.4919 93.0576 57.7638C92.5815 57.8328 91.4263 57.968 90.7473 58.9203C90.3388 59.4641 89.9317 60.3473 90.3388 61.7744C90.3388 61.911 90.4065 61.9786 90.4754 62.1139L91.2911 63.6776C91.2221 63.7452 91.0192 63.9494 90.7473 64.0861C90.6107 64.1537 90.4754 64.289 90.3388 64.4932C89.8627 65.2412 89.9993 66.1245 90.815 67.1444L90.1346 67.96C90.0669 68.0277 89.9993 68.0953 89.9993 68.1643C89.9317 68.2995 89.047 70.0675 90.3388 72.3778C90.2712 73.2611 90.0669 74.9613 89.116 75.9122C88.6399 76.3884 87.9595 76.5926 87.1439 76.5236H87.0762H81.5033C78.9198 76.5236 77.8999 79.7186 77.4251 81.2822L77.3561 81.4865C76.4052 84.4772 76.0657 87.8074 76.3376 91.4771H73.6188C72.8708 91.4771 72.2594 92.0899 72.2594 92.8365C72.2594 93.5846 72.8708 94.196 73.6188 94.196H77.0166C77.5604 94.196 78.1041 93.9931 78.4437 93.5169C78.8522 93.0408 79.0564 92.4294 79.0564 91.818C78.7155 88.2835 78.9874 85.0886 79.872 82.3021L79.9397 82.0979C80.823 79.3791 81.3667 79.2425 81.4344 79.2425H86.941C88.5033 79.3114 89.9317 78.8353 90.9502 77.8154C93.0576 75.777 92.99 72.3778 92.99 71.9706C93.0576 71.6987 92.99 71.4945 92.8534 71.2902Z" fill="white"/>
<defs>
<filter id="filter0_d_6017_3344" x="0.6" y="0.6" width="140.8" height="140.8" filterUnits="userSpaceOnUse" color-interpolation-filters="sRGB">
<feFlood flood-opacity="0" result="BackgroundImageFix"/>
<feColorMatrix in="SourceAlpha" type="matrix" values="0 0 0 0 0 0 0 0 0 0 0 0 0 0 0 0 0 0 127 0" result="hardAlpha"/>
<feOffset dx="4" dy="3"/>
<feGaussianBlur stdDeviation="5.7"/>
<feComposite in2="hardAlpha" operator="out"/>
<feColorMatrix type="matrix" values="0 0 0 0 0.128333 0 0 0 0 0.119778 0 0 0 0 0.119778 0 0 0 0.25 0"/>
<feBlend mode="normal" in2="BackgroundImageFix" result="effect1_dropShadow_6017_3344"/>
<feBlend mode="normal" in="SourceGraphic" in2="effect1_dropShadow_6017_3344" result="shape"/>
</filter>
</defs>
</svg>

<svg width="142" height="142" fill="none" xmlns="http://www.w3.org/2000/svg"><g filter="url(#a)"><circle cx="67" cy="68" r="59" fill="#152968"/></g><path d="M75.657 96.848H56.625c-.748 0-1.36.611-1.36 1.36 0 .747.612 1.359 1.36 1.359h19.032c.748 0 1.36-.612 1.36-1.36 0-.748-.612-1.36-1.36-1.36Z" fill="#fff"/><mask id="b" style="mask-type:luminance" maskUnits="userSpaceOnUse" x="57" y="102" width="18" height="4"><path d="M57.645 102.207h16.967v2.804H57.645v-2.804Z" fill="#fff"/></mask><g mask="url(#b)"><path d="M72.94 102.293H59.346c-.748 0-1.36.611-1.36 1.359s.612 1.36 1.36 1.36H72.94c.748 0 1.36-.612 1.36-1.36 0-.748-.612-1.359-1.36-1.359Z" fill="#fff"/></g><path d="M65.19 73.738h1.903c1.766 0 3.262-1.36 3.262-3.059V69.32c.951-.272 1.834-.68 2.72-1.155l.95.95c1.155 1.156 3.195 1.088 4.418-.134l1.36-1.36c1.29-1.292 1.359-3.262.136-4.419l-.952-.95c.476-.884.815-1.769 1.156-2.72h1.36c1.698 0 3.058-1.427 3.058-3.262v-1.904c0-1.767-1.36-3.262-3.059-3.262h-1.359c-.272-.952-.68-1.836-1.156-2.719l.952-.952c1.155-1.155 1.087-3.194-.137-4.418l-1.36-1.36c-1.29-1.291-3.262-1.359-4.417-.135l-.95.951c-.886-.476-1.769-.815-2.72-1.155v-1.36c0-1.698-1.428-3.058-3.262-3.058h-1.904c-1.767 0-3.262 1.36-3.262 3.059v1.36c-.952.271-1.836.678-2.719 1.154l-.952-.95c-1.155-1.157-3.195-1.088-4.418.135l-1.36 1.36c-.61.61-1.02 1.495-1.02 2.378 0 .816.273 1.564.816 2.108l.953.95c-.476.884-.816 1.769-1.157 2.72h-1.36c-1.562 0-2.92 1.496-2.92 3.262v1.903c0 1.768 1.358 3.263 3.057 3.263h1.36c.272.952.679 1.835 1.155 2.719l-.95.952c-1.157 1.155-1.088 3.194.134 4.418l1.36 1.36c1.291 1.29 3.262 1.358 4.418.134l.952-.95c.883.476 1.766.815 2.718 1.155v1.36c-.067 1.63 1.428 2.99 3.195 2.99Zm-5.438-8.361-.952-.611-2.447 2.447c-.068.067-.407.067-.612-.136l-1.36-1.36c-.203-.203-.271-.475-.136-.612l2.447-2.447-.611-.95c-.748-1.225-1.292-2.515-1.564-3.875l-.203-1.087H50.78c-.137 0-.341-.204-.341-.544v-1.903c0-.341.204-.544.34-.544h3.535l.203-1.087c.272-1.36.816-2.652 1.564-3.876l.611-.95-2.447-2.448c-.067-.067-.067-.136-.067-.136 0-.136.067-.34.204-.407l1.36-1.36c.204-.204.543-.272.61-.136l2.448 2.447.952-.612a10.806 10.806 0 0 1 3.874-1.563l1.087-.203v-3.535c0-.137.205-.34.544-.34h1.903c.34 0 .544.203.544.34v3.535l1.088.203c1.359.271 2.65.815 3.874 1.563l.952.612 2.447-2.447c.067-.068.34-.068.611.136l1.36 1.36c.204.204.272.476.135.611l-2.447 2.447.613.952a11.355 11.355 0 0 1 1.562 3.874l.204 1.088h3.467c.135 0 .34.204.34.544v1.903c0 .34-.205.543-.34.543h-3.467l-.407 1.088c-.272 1.36-.816 2.651-1.564 3.874l-.611.952 2.447 2.447c.068.068.068.34-.137.611l-1.36 1.36c-.203.204-.475.272-.61.135l-2.447-2.447-.953.613a10.828 10.828 0 0 1-3.874 1.562l-1.087.205v3.534c0 .137-.204.34-.544.34h-1.903c-.34 0-.544-.203-.544-.34v-3.534l-.883-.272a10.806 10.806 0 0 1-3.874-1.564Z" fill="#fff"/><path d="M73.277 55.388a7.137 7.137 0 1 0-14.273 0 7.136 7.136 0 1 0 14.273 0Zm-11.554 0a4.41 4.41 0 0 1 4.418-4.42 4.41 4.41 0 0 1 4.417 4.42 4.409 4.409 0 0 1-4.418 4.418 4.409 4.409 0 0 1-4.417-4.418Z" fill="#fff"/><mask id="c" style="mask-type:luminance" maskUnits="userSpaceOnUse" x="65" y="18" width="5" height="7"><path d="M65.951 18h3.117v6.978H65.95V18Z" fill="#fff"/></mask><g mask="url(#c)"><path d="M67.502 24.797c.748 0 1.36-.611 1.36-1.36V19.36c0-.748-.612-1.359-1.36-1.359-.748 0-1.36.611-1.36 1.36v4.078c0 .748.612 1.359 1.36 1.359Z" fill="#fff"/></g><path d="M51.665 26.843c.205.543.748.815 1.223.815.204 0 .341 0 .544-.136.68-.272 1.02-1.088.748-1.767l-1.564-3.671c-.272-.68-1.087-1.02-1.766-.748-.68.272-1.02 1.087-.748 1.768l1.563 3.739ZM39.632 35.541c.272.272.612.408.951.408.34 0 .68-.136.953-.408a1.314 1.314 0 0 0 0-1.903l-2.856-2.855a1.314 1.314 0 0 0-1.903 0 1.314 1.314 0 0 0 0 1.903l2.855 2.855ZM32.839 45.67l-3.74-1.564c-.68-.272-1.495.067-1.767.748-.272.679.069 1.494.748 1.766l3.739 1.564c.204.068.34.137.543.137.544 0 1.02-.341 1.223-.816.272-.748-.067-1.564-.746-1.836Z" fill="#fff"/><mask id="d" style="mask-type:luminance" maskUnits="userSpaceOnUse" x="24" y="59" width="7" height="5"><path d="M24 59.957h6.978v3.117H24v-3.117Z" fill="#fff"/></mask><g mask="url(#d)"><path d="M30.797 61.5c0-.748-.611-1.36-1.36-1.36H25.36c-.748 0-1.359.612-1.359 1.36 0 .748.611 1.36 1.36 1.36h4.078c.748 0 1.359-.612 1.359-1.36Z" fill="#fff"/></g><path d="M31.819 74.827 28.08 76.39c-.679.271-1.02 1.087-.748 1.766.204.544.748.816 1.224.816.204 0 .34 0 .544-.136l3.739-1.563c.679-.272 1.018-1.088.746-1.767-.272-.68-1.087-.952-1.766-.68ZM39.632 87.47l-2.855 2.854a1.314 1.314 0 0 0 0 1.904c.272.272.611.408.952.408.34 0 .68-.136.951-.408l2.856-2.854a1.314 1.314 0 0 0 0-1.904 1.314 1.314 0 0 0-1.904 0ZM95.368 87.47a1.314 1.314 0 0 0-1.903 0 1.314 1.314 0 0 0 0 1.904l2.853 2.854c.272.272.612.408.953.408.34 0 .679-.136.95-.408a1.314 1.314 0 0 0 0-1.904l-2.853-2.854ZM106.923 76.392l-3.738-1.564c-.679-.272-1.495.068-1.767.748-.272.68.068 1.495.748 1.767l3.737 1.563c.205.068.341.137.544.137.544 0 1.02-.34 1.224-.816.34-.748 0-1.563-.748-1.835Z" fill="#fff"/><mask id="e" style="mask-type:luminance" maskUnits="userSpaceOnUse" x="104" y="59" width="7" height="5"><path d="M104.039 59.957h6.959v3.117h-6.959v-3.117Z" fill="#fff"/></mask><g mask="url(#e)"><path d="M109.641 60.14h-4.078c-.748 0-1.36.612-1.36 1.36 0 .748.612 1.36 1.36 1.36h4.078c.748 0 1.359-.612 1.359-1.36 0-.748-.611-1.36-1.359-1.36Z" fill="#fff"/></g><path d="M102.641 48.32c.204 0 .341 0 .544-.136l3.738-1.564c.681-.272 1.02-1.087.748-1.766-.271-.68-1.087-1.02-1.768-.748l-3.737 1.563c-.68.272-1.02 1.088-.748 1.767.204.544.748.885 1.223.885ZM96.319 30.715l-2.855 2.854a1.314 1.314 0 0 0 0 1.903c.272.272.612.409.951.409.34 0 .68-.137.953-.409l2.854-2.854a1.314 1.314 0 0 0 0-1.903c-.544-.544-1.36-.476-1.903 0ZM81.574 27.587c.204.069.34.136.544.136.543 0 1.02-.34 1.222-.815l1.564-3.739c.272-.679-.068-1.495-.748-1.767-.68-.271-1.495.068-1.767.747l-1.563 3.739c-.272.611 0 1.427.748 1.699ZM92.853 71.29c-.611-.95-.474-1.563-.407-1.766l1.292-1.564c.475-.544.407-1.36-.137-1.903-.204-.137-.34-.34-.407-.409.544-.543.883-1.087.951-1.699.068-.611-.135-1.087-.34-1.359l-.815-1.564c-.068-.203 0-.34 0-.407.068-.067.272-.136.407-.136.137 0 .204 0 .341-.068 2.106-.544 3.263-1.427 3.67-2.651.272-1.019-.136-1.903-.544-2.447l-6.117-8.768c-.476-.679-.68-1.564-.884-2.447v-.135c-.068-.341-.203-.748-.272-1.088-3.466-12.1-16.448-16.721-27.46-15.09-14.07 2.175-24.537 14.275-24.537 28.276 0 6.934 2.65 14.07 7.34 19.508 6.254 7.273 6.662 9.379 7.68 15.02l.205 1.02c.272 1.564 1.36 2.583 2.651 2.583H67.5c.749 0 1.36-.611 1.36-1.36v-15.02c0-.749-.611-1.36-1.36-1.36-.747 0-1.359.611-1.359 1.36v13.593H55.606c-.068-.067-.068-.204-.136-.339l-.204-1.02c-1.02-5.777-1.495-8.428-8.292-16.313-4.214-4.894-6.661-11.351-6.661-17.672 0-12.642 9.515-23.586 22.09-25.49 9.787-1.494 21.343 2.584 24.401 13.12.068.34.205.679.272.95v.137c.272 1.088.544 2.31 1.292 3.398l6.186 8.768c0 .07.067.07.067.137-.136.135-.543.407-1.563.679-.477.069-1.632.204-2.31 1.156-.41.544-.816 1.427-.41 2.854 0 .137.069.205.137.34l.816 1.564c-.069.067-.272.271-.544.408-.136.068-.272.203-.408.407-.476.748-.34 1.632.476 2.651l-.68.816c-.068.068-.136.135-.136.204-.067.135-.952 1.903.34 4.214-.068.883-.272 2.583-1.223 3.534-.476.476-1.156.68-1.972.612h-5.641c-2.583 0-3.603 3.195-4.078 4.758l-.069.205c-.95 2.99-1.29 6.32-1.018 9.99h-2.72c-.747 0-1.359.613-1.359 1.36 0 .748.612 1.359 1.36 1.359h3.398c.543 0 1.087-.203 1.427-.68a2.608 2.608 0 0 0 .612-1.698c-.34-3.534-.069-6.73.816-9.516l.068-.204c.883-2.719 1.427-2.855 1.494-2.855h5.507c1.562.068 2.99-.408 4.01-1.428 2.107-2.038 2.039-5.437 2.039-5.844.068-.272 0-.477-.137-.68Z" fill="#fff"/><defs><filter id="a" x=".6" y=".6" width="140.8" height="140.8" filterUnits="userSpaceOnUse" color-interpolation-filters="sRGB"><feFlood flood-opacity="0" result="BackgroundImageFix"/><feColorMatrix in="SourceAlpha" values="0 0 0 0 0 0 0 0 0 0 0 0 0 0 0 0 0 0 127 0" result="hardAlpha"/><feOffset dx="4" dy="3"/><feGaussianBlur stdDeviation="5.7"/><feComposite in2="hardAlpha" operator="out"/><feColorMatrix values="0 0 0 0 0.128333 0 0 0 0 0.119778 0 0 0 0 0.119778 0 0 0 0.25 0"/><feBlend in2="BackgroundImageFix" result="effect1_dropShadow_6017_3344"/><feBlend in="SourceGraphic" in2="effect1_dropShadow_6017_3344" result="shape"/></filter></defs></svg>
